!!!COM: Vivaldi, Antonio
!!!CDT: 1678/03/04/-1741/07/27/
!!!OTL: Concerto in D Major, Op. 6, No. 4
!!!OMV: No. 3
!!!OMD: Allegro
**kern	**dynam	**kern	**kern	**dynam	**kern	**dynam	**kern	**dynam	**kern	**dynam	**kern	**dynam	**kern	**dynam
*staff8	*staff8	*staff7	*staff6	*staff6	*staff5	*staff5	*staff4	*staff4	*staff3	*staff3	*staff2	*staff2	*staff1	*staff1
*Icemba	*Icemba	*Icemba	*Icbass	*Icbass	*Icello	*Icello	*Iviola	*Iviola	*Ivioln	*Ivioln	*Ivioln	*Ivioln	*Ivioln	*Ivioln
*clefF4	*clefF4	*clefG2	*clefF4	*clefF4	*clefF4	*clefF4	*clefC3	*clefC3	*clefG2	*clefG2	*clefG2	*clefG2	*clefG2	*clefG2
*k[f#c#]	*k[f#c#]	*k[f#c#]	*k[f#c#]	*k[f#c#]	*k[f#c#]	*k[f#c#]	*k[f#c#]	*k[f#c#]	*k[f#c#]	*k[f#c#]	*k[f#c#]	*k[f#c#]	*k[f#c#]	*k[f#c#]
*M3/4	*M3/4	*M3/4	*M3/4	*M3/4	*M3/4	*M3/4	*M3/4	*M3/4	*M3/4	*M3/4	*M3/4	*M3/4	*M3/4	*M3/4
*MM120	*MM120	*MM120	*MM120	*MM120	*MM120	*MM120	*MM120	*MM120	*MM120	*MM120	*MM120	*MM120	*MM120	*M120
=1-	=1-	=1-	=1-	=1-	=1-	=1-	=1-	=1-	=1-	=1-	=1-	=1-	=1-	=1-
4D\	f	2.r	4D\	f	4D\	f	4f#\	f	4dd\	f	4dd\	f	4dd\	f
8r	.	.	8r	.	8r	.	8r	.	4f#/	.	4f#/	.	4f#/	.
16D\LL	.	.	16D\LL	.	16D\LL	.	16f#\LL	.	.	.	.	.	.	.
16E\JJ	.	.	16E\JJ	.	16E\JJ	.	16g\JJ	.	.	.	.	.	.	.
8F#\L	.	.	8F#\L	.	8F#\L	.	8a\L	.	4d/	.	4d/	.	4d/	.
8E\J	.	.	8E\J	.	8E\J	.	8g\J	.	.	.	.	.	.	.
=2	=2	=2	=2	=2	=2	=2	=2	=2	=2	=2	=2	=2	=2	=2
4D\	.	2.r	4D\	.	4D\	.	4f#\	.	8a\L	.	8a\L	.	8a\L	.
.	.	.	.	.	.	.	.	.	16b\L	.	16b\L	.	16b\L	.
.	.	.	.	.	.	.	.	.	16cc#\JJ	.	16cc#\JJ	.	16cc#\JJ	.
8r	.	.	8r	.	8r	.	8r	.	16dd\LL	.	16dd\LL	.	16dd\LL	.
.	.	.	.	.	.	.	.	.	16ee\	.	16ee\	.	16ee\	.
16D\LL	.	.	16D\LL	.	16D\LL	.	8a\	.	16ff#\	.	16ff#\	.	16ff#\	.
16E\JJ	.	.	16E\JJ	.	16E\JJ	.	.	.	16gg\JJ	.	16gg\JJ	.	16gg\JJ	.
8F#\L	.	.	8F#\L	.	8F#\L	.	8f#\L	.	8aa\L	.	8aa\L	.	8aa\L	.
8D\J	.	.	8D\J	.	8D\J	.	8f#\J	.	8dd\J	.	8dd\J	.	8dd\J	.
=3	=3	=3	=3	=3	=3	=3	=3	=3	=3	=3	=3	=3	=3	=3
4A\	.	2.r	4A\	.	4A\	.	4e\	.	4cc#\	.	4cc#\	.	4cc#\	.
8r	.	.	8r	.	8r	.	8r	.	4b\	.	4b\	.	4b\	.
16A\LL	.	.	16A\LL	.	16A\LL	.	16e\LL	.	.	.	.	.	.	.
16G\JJ	.	.	16G\JJ	.	16G\JJ	.	16f#\JJ	.	.	.	.	.	.	.
8F#\L	.	.	8F#\L	.	8F#\L	.	8g\L	.	4a/	.	4a/	.	4a/	.
8E\J	.	.	8E\J	.	8E\J	.	8g\J	.	.	.	.	.	.	.
=4	=4	=4	=4	=4	=4	=4	=4	=4	=4	=4	=4	=4	=4	=4
4D\	.	2.r	4D\	.	4D\	.	4a\	.	4dd\	.	4dd\	.	4dd\	.
8r	.	.	8r	.	8r	.	8r	.	4a/	.	4a/	.	4a/	.
16D\LL	.	.	16D\LL	.	16D\LL	.	16f#\LL	.	.	.	.	.	.	.
16E\JJ	.	.	16E\JJ	.	16E\JJ	.	16g\JJ	.	.	.	.	.	.	.
8F#\L	.	.	8F#\L	.	8F#\L	.	8a\L	.	4f#/	.	4f#/	.	4f#/	.
8D\J	.	.	8D\J	.	8D\J	.	8f#\J	.	.	.	.	.	.	.
=5	=5	=5	=5	=5	=5	=5	=5	=5	=5	=5	=5	=5	=5	=5
4BB/	.	2.r	4BB/	.	4BB/	.	4d\	.	8g/L	.	8g/L	.	8g/L	.
.	.	.	.	.	.	.	.	.	16a/L	.	16a/L	.	16a/L	.
.	.	.	.	.	.	.	.	.	16b/JJ	.	16b/JJ	.	16b/JJ	.
8r	.	.	8r	.	8r	.	8r	.	16cc#\LL	.	16cc#\LL	.	16cc#\LL	.
.	.	.	.	.	.	.	.	.	16dd\	.	16dd\	.	16dd\	.
16G\LL	.	.	16G\LL	.	16G\LL	.	16b\LL	.	16ee\	.	16ee\	.	16ee\	.
16A\JJ	.	.	16A\JJ	.	16A\JJ	.	16cc#\JJ	.	16ff#\JJ	.	16ff#\JJ	.	16ff#\JJ	.
8B\L	.	.	8B\L	.	8B\L	.	8dd\L	.	8gg\	.	8gg\	.	8gg\	.
8A\J	.	.	8A\J	.	8A\J	.	8cc#\J	.	8r	.	8r	.	8r	.
=6	=6	=6	=6	=6	=6	=6	=6	=6	=6	=6	=6	=6	=6	=6
4G#\	.	2.r	4G#\	.	4G#\	.	4b\	.	4ee\	.	4ee\	.	4ee\	.
8r	.	.	8r	.	8r	.	8r	.	4b\	.	4b\	.	4b\	.
16E\LL	.	.	16E\LL	.	16E\LL	.	16g#\LL	.	.	.	.	.	.	.
16F#\JJ	.	.	16F#\JJ	.	16F#\JJ	.	16a\JJ	.	.	.	.	.	.	.
8G#\L	.	.	8G#\L	.	8G#\L	.	8b\L	.	4g#/	.	4g#/	.	4g#/	.
8E\J	.	.	8E\J	.	8E\J	.	8g#\J	.	.	.	.	.	.	.
=7	=7	=7	=7	=7	=7	=7	=7	=7	=7	=7	=7	=7	=7	=7
4C#/	.	2.r	4C#/	.	4C#/	.	4e\	.	8a\L	.	8a\L	.	8a\L	.
.	.	.	.	.	.	.	.	.	16b\L	.	16b\L	.	16b\L	.
.	.	.	.	.	.	.	.	.	16cc#\JJ	.	16cc#\JJ	.	16cc#\JJ	.
8r	.	.	8r	.	8r	.	8r	.	16dd\LL	.	16dd\LL	.	16dd\LL	.
.	.	.	.	.	.	.	.	.	16ee\	.	16ee\	.	16ee\	.
16A\LL	.	.	16A\LL	.	16A\LL	.	16c#\LL	.	16ff#\	.	16ff#\	.	16ff#\	.
16B\JJ	.	.	16B\JJ	.	16B\JJ	.	16d\JJ	.	16ggn\JJ	.	16ggn\JJ	.	16ggn\JJ	.
8c#\L	.	.	8c#\L	.	8c#\L	.	8e\L	.	8aa\	.	8aa\	.	8aa\	.
8B\J	.	.	8B\J	.	8B\J	.	8d\J	.	8r	.	8r	.	8r	.
=8	=8	=8	=8	=8	=8	=8	=8	=8	=8	=8	=8	=8	=8	=8
4A#\	.	2.r	4A#\	.	4A#\	.	4c#\	.	4ff#\	.	4ff#\	.	4ff#\	.
8r	.	.	8r	.	8r	.	8r	.	4cc#\	.	4cc#\	.	4cc#\	.
16F#\LL	.	.	16F#\LL	.	16F#\LL	.	16a#\LL	.	.	.	.	.	.	.
16G#\JJ	.	.	16G#\JJ	.	16G#\JJ	.	16b\JJ	.	.	.	.	.	.	.
8A#\L	.	.	8A#\L	.	8A#\L	.	8cc#\L	.	4a#/	.	4a#/	.	4a#/	.
8F#\J	.	.	8F#\J	.	8F#\J	.	8a#\J	.	.	.	.	.	.	.
=9	=9	=9	=9	=9	=9	=9	=9	=9	=9	=9	=9	=9	=9	=9
4D\	.	2.r	4D\	.	4D\	.	4f#\	.	8b\L	.	8b\L	.	8b\L	.
.	.	.	.	.	.	.	.	.	16cc#\L	.	16cc#\L	.	16cc#\L	.
.	.	.	.	.	.	.	.	.	16dd\JJ	.	16dd\JJ	.	16dd\JJ	.
8r	.	.	8r	.	8r	.	8r	.	16ee\LL	.	16ee\LL	.	16ee\LL	.
.	.	.	.	.	.	.	.	.	16ff#\	.	16ff#\	.	16ff#\	.
16B\LL	.	.	16B\LL	.	16B\LL	.	16d\LL	.	16gg\	.	16gg\	.	16gg\	.
16c#\JJ	.	.	16c#\JJ	.	16c#\JJ	.	16e\JJ	.	16aa\JJ	.	16aa\JJ	.	16aa\JJ	.
8d\L	.	.	8d\L	.	8d\L	.	8f#\L	.	8bb\	.	8bb\	.	8bb\	.
8B\J	.	.	8B\J	.	8B\J	.	8d\J	.	8r	.	8r	.	8r	.
=10	=10	=10	=10	=10	=10	=10	=10	=10	=10	=10	=10	=10	=10	=10
4D\	.	2.r	4D\	.	4D\	.	4f#\	.	4dd\	.	4dd\	.	4dd\	.
8r	.	.	8r	.	8r	.	8r	.	4a/	.	4a/	.	4a/	.
16D\LL	.	.	16D\LL	.	16D\LL	.	16f#\LL	.	.	.	.	.	.	.
16E\JJ	.	.	16E\JJ	.	16E\JJ	.	16g\JJ	.	.	.	.	.	.	.
8F#\L	.	.	8F#\L	.	8F#\L	.	8a\L	.	4f#/	.	4f#/	.	4f#/	.
8D\J	.	.	8D\J	.	8D\J	.	8f#\J	.	.	.	.	.	.	.
=11	=11	=11	=11	=11	=11	=11	=11	=11	=11	=11	=11	=11	=11	=11
4BB/	.	2.r	4BB/	.	4BB/	.	4g\	.	4dd\	.	4dd\	.	4dd\	.
8r	.	.	8r	.	8r	.	8r	.	4b\	.	4b\	.	4b\	.
16G\LL	.	.	16G\LL	.	16G\LL	.	16B/LL	.	.	.	.	.	.	.
16A\JJ	.	.	16A\JJ	.	16A\JJ	.	16c#/JJ	.	.	.	.	.	.	.
8B\L	.	.	8B\L	.	8B\L	.	8d\L	.	4g/	.	4g/	.	4g/	.
8G\J	.	.	8G\J	.	8G\J	.	8B\J	.	.	.	.	.	.	.
=12	=12	=12	=12	=12	=12	=12	=12	=12	=12	=12	=12	=12	=12	=12
4F#\	.	2.r	4F#\	.	4F#\	.	4A/	.	4dd\	.	4dd\	.	4dd\	.
8r	.	.	8r	.	8r	.	8r	.	4a/	.	4a/	.	4a/	.
16D\LL	.	.	16D\LL	.	16D\LL	.	16f#\LL	.	.	.	.	.	.	.
16E\JJ	.	.	16E\JJ	.	16E\JJ	.	16g\JJ	.	.	.	.	.	.	.
8F#\L	.	.	8F#\L	.	8F#\L	.	8a\L	.	4f#/	.	4f#/	.	4f#/	.
8D\J	.	.	8D\J	.	8D\J	.	8f#\J	.	.	.	.	.	.	.
=13	=13	=13	=13	=13	=13	=13	=13	=13	=13	=13	=13	=13	=13	=13
4BB/	.	2.r	4BB/	.	4BB/	.	4g\	.	4dd\	.	4dd\	.	4dd\	.
8r	.	.	8r	.	8r	.	8r	.	4b\	.	4b\	.	4b\	.
16G\LL	.	.	16G\LL	.	16G\LL	.	16B/LL	.	.	.	.	.	.	.
16A\JJ	.	.	16A\JJ	.	16A\JJ	.	16c#/JJ	.	.	.	.	.	.	.
8B\L	.	.	8B\L	.	8B\L	.	8d/L	.	4g/	.	4g/	.	4g/	.
8G\J	.	.	8G\J	.	8G\J	.	8B/J	.	.	.	.	.	.	.
=14	=14	=14	=14	=14	=14	=14	=14	=14	=14	=14	=14	=14	=14	=14
4D\	.	2.r	4D\	.	4D\	.	4A/	.	8f#/L	.	8f#/L	.	8f#/L	.
.	.	.	.	.	.	.	.	.	16g/L	.	16g/L	.	16g/L	.
.	.	.	.	.	.	.	.	.	16a/JJ	.	16a/JJ	.	16a/JJ	.
8r	.	.	8r	.	8r	.	8r	.	16b\LL	.	16b\LL	.	16b\LL	.
.	.	.	.	.	.	.	.	.	16cc#\	.	16cc#\	.	16cc#\	.
16F#\LL	.	.	16F#\LL	.	16F#\LL	.	16a\LL	.	16dd\	.	16dd\	.	16dd\	.
16E\JJ	.	.	16E\JJ	.	16E\JJ	.	16g\JJ	.	16ee\JJ	.	16ee\JJ	.	16ee\JJ	.
8D/L	.	.	8D/L	.	8D/L	.	8f#\L	.	8ff#\	.	8ff#\	.	8ff#\	.
8C#/J	.	.	8C#/J	.	8C#/J	.	8e\J	.	8r	.	8r	.	8r	.
=15	=15	=15	=15	=15	=15	=15	=15	=15	=15	=15	=15	=15	=15	=15
4D\	.	2.r	4D\	.	4D\	.	4a\	.	4dd\	.	4dd\	.	4dd\	.
4GG/	.	.	4GG/	.	4GG/	.	4b\	.	4ee\	.	4ee\	.	4ee\	.
4AA/	.	.	4AA/	.	4AA/	.	4e\	.	4cc#\	.	4cc#\	.	4cc#\	.
=16	=16	=16	=16	=16	=16	=16	=16	=16	=16	=16	=16	=16	=16	=16
4D\	.	2.r	4D\	.	4D\	.	4f#\	.	4dd\	.	4dd\	.	4dd\	.
4d\	.	.	4r	.	4d\	.	4r	.	4r	.	4r	.	4.ff#\	.
4d\	.	.	4r	.	4d\	.	4r	.	4r	.	4r	.	.	.
.	.	.	.	.	.	.	.	.	.	.	.	.	8gg\	.
=17	=17	=17	=17	=17	=17	=17	=17	=17	=17	=17	=17	=17	=17	=17
4c#\	.	2.r	2.r	.	4c#\	.	2.r	.	2.r	.	2.r	.	4aa\	.
4c#\	.	.	.	.	4c#\	.	.	.	.	.	.	.	4.a/	.
4c#\	.	.	.	.	4c#\	.	.	.	.	.	.	.	.	.
.	.	.	.	.	.	.	.	.	.	.	.	.	8cc#\	.
=18	=18	=18	=18	=18	=18	=18	=18	=18	=18	=18	=18	=18	=18	=18
4B\	.	2.r	2.r	.	4B\	.	2.r	.	2.r	.	2.r	.	4dd\	.
4G\	.	.	.	.	4G\	.	.	.	.	.	.	.	8.ee\L	.
.	.	.	.	.	.	.	.	.	.	.	.	.	16ff#\k	.
4G\	.	.	.	.	4G\	.	.	.	.	.	.	.	8.gg\	.
.	.	.	.	.	.	.	.	.	.	.	.	.	16ee\Jk	.
=19	=19	=19	=19	=19	=19	=19	=19	=19	=19	=19	=19	=19	=19	=19
4A\	.	2.r	2.r	.	4A\	.	2.r	.	2.r	.	2.r	.	4.cc#\	.
8A\L	.	.	.	.	8A\L	.	.	.	.	.	.	.	.	.
8G\	.	.	.	.	8G\	.	.	.	.	.	.	.	8b\	.
8F#\	.	.	.	.	8F#\	.	.	.	.	.	.	.	4a/	.
8E\J	.	.	.	.	8E\J	.	.	.	.	.	.	.	.	.
=20	=20	=20	=20	=20	=20	=20	=20	=20	=20	=20	=20	=20	=20	=20
4D\	.	2.r	2.r	.	4D\	.	2.r	.	2.r	.	2.r	.	4aa\	.
2G\	.	.	.	.	2G\	.	.	.	.	.	.	.	4.bb\	.
.	.	.	.	.	.	.	.	.	.	.	.	.	8ccc#\	.
=21	=21	=21	=21	=21	=21	=21	=21	=21	=21	=21	=21	=21	=21	=21
4F#\	.	2.r	2.r	.	4F#\	.	2.r	.	2.r	.	2.r	.	4ddd\	.
4A\	.	.	.	.	4A\	.	.	.	.	.	.	.	8ccc#\L	.
.	.	.	.	.	.	.	.	.	.	.	.	.	8bb\	.
4C#/	.	.	.	.	4C#/	.	.	.	.	.	.	.	8aa\	.
.	.	.	.	.	.	.	.	.	.	.	.	.	8gg\J	.
=22	=22	=22	=22	=22	=22	=22	=22	=22	=22	=22	=22	=22	=22	=22
4.D\	.	2.r	2.r	.	4.D\	.	2.r	.	2.r	.	2.r	.	4ff#\	.
.	.	.	.	.	.	.	.	.	.	.	.	.	4ee\	.
8E\	.	.	.	.	8E\	.	.	.	.	.	.	.	.	.
8F#\L	.	.	.	.	8F#\L	.	.	.	.	.	.	.	4dd\	.
8D\J	.	.	.	.	8D\J	.	.	.	.	.	.	.	.	.
=23	=23	=23	=23	=23	=23	=23	=23	=23	=23	=23	=23	=23	=23	=23
4E\	.	2.r	2.r	.	4E\	.	2.r	.	2.r	.	2.r	.	8gg#\L	.
.	.	.	.	.	.	.	.	.	.	.	.	.	8bb\	.
2G#\	.	.	.	.	2G#\	.	.	.	.	.	.	.	8dd\	.
.	.	.	.	.	.	.	.	.	.	.	.	.	8bb\	.
.	.	.	.	.	.	.	.	.	.	.	.	.	8dd\	.
.	.	.	.	.	.	.	.	.	.	.	.	.	8b\J	.
=24	=24	=24	=24	=24	=24	=24	=24	=24	=24	=24	=24	=24	=24	=24
2.A\	.	2.r	2.r	.	2.A\	.	2.r	.	2.r	.	2.r	.	8cc#\L	.
.	.	.	.	.	.	.	.	.	.	.	.	.	8aa\	.
.	.	.	.	.	.	.	.	.	.	.	.	.	8cc#\	.
.	.	.	.	.	.	.	.	.	.	.	.	.	8aa\	.
.	.	.	.	.	.	.	.	.	.	.	.	.	8cc#\	.
.	.	.	.	.	.	.	.	.	.	.	.	.	8a\J	.
=25	=25	=25	=25	=25	=25	=25	=25	=25	=25	=25	=25	=25	=25	=25
4G#\	.	2.r	2.r	.	4G#\	.	2.r	.	2.r	.	2.r	.	8b/L	.
.	.	.	.	.	.	.	.	.	.	.	.	.	8ee/	.
2E\	.	.	.	.	2E\	.	.	.	.	.	.	.	8g#/	.
.	.	.	.	.	.	.	.	.	.	.	.	.	8ee/	.
.	.	.	.	.	.	.	.	.	.	.	.	.	8g#/	.
.	.	.	.	.	.	.	.	.	.	.	.	.	8e/J	.
=26	=26	=26	=26	=26	=26	=26	=26	=26	=26	=26	=26	=26	=26	=26
2D\	.	2.r	2.r	.	2D\	.	2.r	.	2.r	.	2.r	.	8f#/L	.
.	.	.	.	.	.	.	.	.	.	.	.	.	8dd/	.
.	.	.	.	.	.	.	.	.	.	.	.	.	8f#/	.
.	.	.	.	.	.	.	.	.	.	.	.	.	8dd/	.
4BB/	.	.	.	.	4BB/	.	.	.	.	.	.	.	8f#/	.
.	.	.	.	.	.	.	.	.	.	.	.	.	8d/J	.
=27	=27	=27	=27	=27	=27	=27	=27	=27	=27	=27	=27	=27	=27	=27
2C#/	.	2.r	2.r	.	2C#/	.	2.r	.	2.r	.	2.r	.	8e/L	.
.	.	.	.	.	.	.	.	.	.	.	.	.	8cc#/	.
.	.	.	.	.	.	.	.	.	.	.	.	.	8e/	.
.	.	.	.	.	.	.	.	.	.	.	.	.	8cc#/	.
4AA/	.	.	.	.	4AA/	.	.	.	.	.	.	.	8e/	.
.	.	.	.	.	.	.	.	.	.	.	.	.	8c#/J	.
=28	=28	=28	=28	=28	=28	=28	=28	=28	=28	=28	=28	=28	=28	=28
2BB/	.	2.r	2.r	.	2BB/	.	2.r	.	2.r	.	2.r	.	8d/L	.
.	.	.	.	.	.	.	.	.	.	.	.	.	8b/	.
.	.	.	.	.	.	.	.	.	.	.	.	.	8dd/	.
.	.	.	.	.	.	.	.	.	.	.	.	.	8b/	.
4AA/	.	.	.	.	4AA/	.	.	.	.	.	.	.	8ee/	.
.	.	.	.	.	.	.	.	.	.	.	.	.	8a/J	.
=29	=29	=29	=29	=29	=29	=29	=29	=29	=29	=29	=29	=29	=29	=29
2E\	.	2.r	2.r	.	2E\	.	2.r	.	2.r	.	2.r	.	8g#\L	.
.	.	.	.	.	.	.	.	.	.	.	.	.	8ee\	.
.	.	.	.	.	.	.	.	.	.	.	.	.	8gg#\	.
.	.	.	.	.	.	.	.	.	.	.	.	.	8ee\	.
4E\	.	.	.	.	4E\	.	.	.	.	.	.	.	8bb\	.
.	.	.	.	.	.	.	.	.	.	.	.	.	8dd\J	.
=30	=30	=30	=30	=30	=30	=30	=30	=30	=30	=30	=30	=30	=30	=30
4A\	.	2.r	2.r	.	4A\	.	2.r	.	2.r	.	2.r	.	8cc#\L	.
.	.	.	.	.	.	.	.	.	.	.	.	.	8ee\	.
8C#/L	.	.	.	.	8C#/L	.	.	.	.	.	.	.	8aa\	.
8D/J	.	.	.	.	8D/J	.	.	.	.	.	.	.	8cc#\	.
4E\	.	.	.	.	4E\	.	.	.	.	.	.	.	8e\	.
.	.	.	.	.	.	.	.	.	.	.	.	.	8gg#\J	.
=31	=31	=31	=31	=31	=31	=31	=31	=31	=31	=31	=31	=31	=31	=31
4AA/	.	2.r	4AA/	f	4AA/	f	4c#\	f	4a/	f	4a/	f	4a/	f
8r	.	.	8r	.	8r	.	8r	.	4c#/	.	4c#/	.	4c#/	.
16AA/LL	.	.	16AA/LL	.	16AA/LL	.	16c#\LL	.	.	.	.	.	.	.
16BB/JJ	.	.	16BB/JJ	.	16BB/JJ	.	16d\JJ	.	.	.	.	.	.	.
8C#/L	.	.	8C#/L	.	8C#/L	.	8e\L	.	4A/	.	4A/	.	4A/	.
8BB/J	.	.	8BB/J	.	8BB/J	.	8d\J	.	.	.	.	.	.	.
=32	=32	=32	=32	=32	=32	=32	=32	=32	=32	=32	=32	=32	=32	=32
4AA/	.	2.r	4AA/	.	4AA/	.	4c#\	.	8e/L	.	8e/L	.	8e/L	.
.	.	.	.	.	.	.	.	.	16f#/L	.	16f#/L	.	16f#/L	.
.	.	.	.	.	.	.	.	.	16g#/JJ	.	16g#/JJ	.	16g#/JJ	.
8r	.	.	8r	.	8r	.	8r	.	16a\LL	.	16a\LL	.	16a\LL	.
.	.	.	.	.	.	.	.	.	16b\	.	16b\	.	16b\	.
16AA/LL	.	.	16AA/LL	.	16AA/LL	.	16c#\LL	.	16cc#\	.	16cc#\	.	16cc#\	.
16BB/JJ	.	.	16BB/JJ	.	16BB/JJ	.	16d\JJ	.	16dd\JJ	.	16dd\JJ	.	16dd\JJ	.
8C#/L	.	.	8C#/L	.	8C#/L	.	8e\L	.	8ee\L	.	8ee\L	.	8ee\L	.
8D/J	.	.	8D/J	.	8D/J	.	8f#\J	.	8a\J	.	8a\J	.	8a\J	.
=33	=33	=33	=33	=33	=33	=33	=33	=33	=33	=33	=33	=33	=33	=33
4E\	.	2.r	4E\	.	4E\	.	4B/	.	8g#/L	.	8g#/L	.	8g#/L	.
.	.	.	.	.	.	.	.	.	8f#/J	.	8f#/J	.	8f#/J	.
8r	.	.	8r	.	8r	.	8r	.	4e/	.	4e/	.	4e/	.
16E\LL	.	.	16E\LL	.	16E\LL	.	16g#\LL	.	.	.	.	.	.	.
16F#\JJ	.	.	16F#\JJ	.	16F#\JJ	.	16a\JJ	.	.	.	.	.	.	.
8G#\L	.	.	8G#\L	.	8G#\L	.	8b\L	.	4r	.	4r	.	4r	.
8E\J	.	.	8E\J	.	8E\J	.	8g#\J	.	.	.	.	.	.	.
=34	=34	=34	=34	=34	=34	=34	=34	=34	=34	=34	=34	=34	=34	=34
4A\	.	2.r	4A\	.	4A\	.	4cc#\	.	4ee\	.	4ee\	.	4ee\	.
8r	.	.	8r	.	8r	.	8r	.	4cc#\	.	4cc#\	.	4cc#\	.
16AA/LL	.	.	16AA/LL	.	16AA/LL	.	16c#\LL	.	.	.	.	.	.	.
16BB/JJ	.	.	16BB/JJ	.	16BB/JJ	.	16d\JJ	.	.	.	.	.	.	.
8C#/L	.	.	8C#/L	.	8C#/L	.	8e\L	.	4a/	.	4a/	.	4a/	.
8AA/J	.	.	8AA/J	.	8AA/J	.	8c#\J	.	.	.	.	.	.	.
=35	=35	=35	=35	=35	=35	=35	=35	=35	=35	=35	=35	=35	=35	=35
4D\	.	2.r	4D\	.	4D\	.	4A/	.	8f#/L	.	8f#/L	.	8f#/L	.
.	.	.	.	.	.	.	.	.	16g#/L	.	16g#/L	.	16g#/L	.
.	.	.	.	.	.	.	.	.	16a/JJ	.	16a/JJ	.	16a/JJ	.
8r	.	.	8r	.	8r	.	8r	.	16b\LL	.	16b\LL	.	16b\LL	.
.	.	.	.	.	.	.	.	.	16cc#\	.	16cc#\	.	16cc#\	.
16BB/LL	.	.	16BB/LL	.	16BB/LL	.	8f#\	.	16dd\	.	16dd\	.	16dd\	.
16C#/JJ	.	.	16C#/JJ	.	16C#/JJ	.	.	.	16ee\JJ	.	16ee\JJ	.	16ee\JJ	.
8D/L	.	.	8D/L	.	8D/L	.	8f#\L	.	8ff#\	.	8ff#\	.	8ff#\	.
8C#/J	.	.	8C#/J	.	8C#/J	.	8e\J	.	8r	.	8r	.	8r	.
=36	=36	=36	=36	=36	=36	=36	=36	=36	=36	=36	=36	=36	=36	=36
4BB/	.	2.r	4BB/	.	4BB/	.	4d\	.	4ff#\	.	4ff#\	.	4ff#\	.
8r	.	.	8r	.	8r	.	8r	.	4dd\	.	4dd\	.	4dd\	.
16BB/LL	.	.	16BB/LL	.	16BB/LL	.	16d\LL	.	.	.	.	.	.	.
16C#/JJ	.	.	16C#/JJ	.	16C#/JJ	.	16e\JJ	.	.	.	.	.	.	.
8D/L	.	.	8D/L	.	8D/L	.	8f#\L	.	4b\	.	4b\	.	4b\	.
8BB/J	.	.	8BB/J	.	8BB/J	.	8d\J	.	.	.	.	.	.	.
=37	=37	=37	=37	=37	=37	=37	=37	=37	=37	=37	=37	=37	=37	=37
4E\	.	2.r	4E\	.	4E\	.	4B/	.	8g#/L	.	8g#/L	.	8g#/L	.
.	.	.	.	.	.	.	.	.	16a/L	.	16a/L	.	16a/L	.
.	.	.	.	.	.	.	.	.	16b/JJ	.	16b/JJ	.	16b/JJ	.
8r	.	.	8r	.	8r	.	8r	.	16cc#\LL	.	16cc#\LL	.	16cc#\LL	.
.	.	.	.	.	.	.	.	.	16dd\	.	16dd\	.	16dd\	.
16C#/LL	.	.	16C#/LL	.	16C#/LL	.	8g#\	.	16ee\	.	16ee\	.	16ee\	.
16D/JJ	.	.	16D/JJ	.	16D/JJ	.	.	.	16ff#\JJ	.	16ff#\JJ	.	16ff#\JJ	.
8E\L	.	.	8E\L	.	8E\L	.	8g#\L	.	8gg#\	.	8gg#\	.	8gg#\	.
8D\J	.	.	8D\J	.	8D\J	.	8f#\J	.	8r	.	8r	.	8r	.
=38	=38	=38	=38	=38	=38	=38	=38	=38	=38	=38	=38	=38	=38	=38
4C#/	.	2.r	4C#/	.	4C#/	.	4e\	.	4gg#\	.	4gg#\	.	4gg#\	.
8r	.	.	8r	.	8r	.	8r	.	4ee\	.	4ee\	.	4ee\	.
16C#/LL	.	.	16C#/LL	.	16C#/LL	.	16e\LL	.	.	.	.	.	.	.
16D/JJ	.	.	16D/JJ	.	16D/JJ	.	16f#\JJ	.	.	.	.	.	.	.
8E\L	.	.	8E\L	.	8E\L	.	8g#\L	.	4cc#\	.	4cc#\	.	4cc#\	.
8C#\J	.	.	8C#\J	.	8C#\J	.	8e\J	.	.	.	.	.	.	.
=39	=39	=39	=39	=39	=39	=39	=39	=39	=39	=39	=39	=39	=39	=39
4F#\	.	2.r	4F#\	.	4F#\	.	4c#\	.	8a\L	.	8a\L	.	8a\L	.
.	.	.	.	.	.	.	.	.	16b\L	.	16b\L	.	16b\L	.
.	.	.	.	.	.	.	.	.	16cc#\JJ	.	16cc#\JJ	.	16cc#\JJ	.
8r	.	.	8r	.	8r	.	8r	.	16dd\LL	.	16dd\LL	.	16dd\LL	.
.	.	.	.	.	.	.	.	.	16ee\	.	16ee\	.	16ee\	.
16D\LL	.	.	16D\LL	.	16D\LL	.	8a\	.	16ff#\	.	16ff#\	.	16ff#\	.
16E\JJ	.	.	16E\JJ	.	16E\JJ	.	.	.	16gg#\JJ	.	16gg#\JJ	.	16gg#\JJ	.
8F#\L	.	.	8F#\L	.	8F#\L	.	8a\L	.	8aa\	.	8aa\	.	8aa\	.
8E\J	.	.	8E\J	.	8E\J	.	8g#\J	.	8r	.	8r	.	8r	.
=40	=40	=40	=40	=40	=40	=40	=40	=40	=40	=40	=40	=40	=40	=40
4F#\	.	2.r	4F#\	.	4F#\	.	4f#\	.	4aa\	.	4aa\	.	4aa\	.
4F#\	.	.	4F#\	.	4F#\	.	4d#\	.	4ff#\	.	4ff#\	.	4ff#\	.
4F#\	.	.	4F#\	.	4F#\	.	4a\	.	4dd#\	.	4dd#\	.	4dd#\	.
=41	=41	=41	=41	=41	=41	=41	=41	=41	=41	=41	=41	=41	=41	=41
*	*	*	*	*	*^	*	*	*	*	*	*	*	*	*
[2.G#\	.	2.r	4G#\	.	[2.G#/	4G#\	.	4d#\	.	4b#\	.	4b#\	.	16b#/LL	.
.	.	.	.	.	.	.	.	.	.	.	.	.	.	16g#/	.
.	.	.	.	.	.	.	.	.	.	.	.	.	.	16f#/	.
.	.	.	.	.	.	.	.	.	.	.	.	.	.	16g#/JJ	.
.	.	.	4r	.	.	4r	.	4r	.	4r	.	4r	.	16b#\LL	.
.	.	.	.	.	.	.	.	.	.	.	.	.	.	16dd#\	.
.	.	.	.	.	.	.	.	.	.	.	.	.	.	16cc#\	.
.	.	.	.	.	.	.	.	.	.	.	.	.	.	16dd#\JJ	.
.	.	.	4r	.	.	4r	.	4r	.	4r	.	4r	.	16gg#\LL	.
.	.	.	.	.	.	.	.	.	.	.	.	.	.	16dd#\	.
.	.	.	.	.	.	.	.	.	.	.	.	.	.	16cc#\	.
.	.	.	.	.	.	.	.	.	.	.	.	.	.	16dd#\JJ	.
*	*	*	*	*	*v	*v	*	*	*	*	*	*	*	*	*
=42	=42	=42	=42	=42	=42	=42	=42	=42	=42	=42	=42	=42	=42	=42
2.G#\]	.	2.r	2.r	.	2.G#\]	.	2.r	.	2.r	.	2.r	.	16b#/LL	.
.	.	.	.	.	.	.	.	.	.	.	.	.	16g#/	.
.	.	.	.	.	.	.	.	.	.	.	.	.	16f#/	.
.	.	.	.	.	.	.	.	.	.	.	.	.	16g#/JJ	.
.	.	.	.	.	.	.	.	.	.	.	.	.	16b#\LL	.
.	.	.	.	.	.	.	.	.	.	.	.	.	16dd#\	.
.	.	.	.	.	.	.	.	.	.	.	.	.	16cc#\	.
.	.	.	.	.	.	.	.	.	.	.	.	.	16dd#\JJ	.
.	.	.	.	.	.	.	.	.	.	.	.	.	16gg#\LL	.
.	.	.	.	.	.	.	.	.	.	.	.	.	16dd#\	.
.	.	.	.	.	.	.	.	.	.	.	.	.	16cc#\	.
.	.	.	.	.	.	.	.	.	.	.	.	.	16dd#\JJ	.
=43	=43	=43	=43	=43	=43	=43	=43	=43	=43	=43	=43	=43	=43	=43
[2.C#/	.	2.r	2.r	.	[2.C#/	.	2.r	.	2.r	.	2.r	.	16ee\LL	.
.	.	.	.	.	.	.	.	.	.	.	.	.	16cc#\	.
.	.	.	.	.	.	.	.	.	.	.	.	.	16b#\	.
.	.	.	.	.	.	.	.	.	.	.	.	.	16cc#\JJ	.
.	.	.	.	.	.	.	.	.	.	.	.	.	16ee\LL	.
.	.	.	.	.	.	.	.	.	.	.	.	.	16gg#\	.
.	.	.	.	.	.	.	.	.	.	.	.	.	16ff#\	.
.	.	.	.	.	.	.	.	.	.	.	.	.	16gg#\JJ	.
.	.	.	.	.	.	.	.	.	.	.	.	.	16ccc#\LL	.
.	.	.	.	.	.	.	.	.	.	.	.	.	16gg#\	.
.	.	.	.	.	.	.	.	.	.	.	.	.	16ff#\	.
.	.	.	.	.	.	.	.	.	.	.	.	.	16gg#\JJ	.
=44	=44	=44	=44	=44	=44	=44	=44	=44	=44	=44	=44	=44	=44	=44
2.C#/]	.	2.r	2.r	.	2.C#/]	.	2.r	.	2.r	.	2.r	.	16ee\LL	.
.	.	.	.	.	.	.	.	.	.	.	.	.	16cc#\	.
.	.	.	.	.	.	.	.	.	.	.	.	.	16b#\	.
.	.	.	.	.	.	.	.	.	.	.	.	.	16cc#\JJ	.
.	.	.	.	.	.	.	.	.	.	.	.	.	16ee\LL	.
.	.	.	.	.	.	.	.	.	.	.	.	.	16gg#\	.
.	.	.	.	.	.	.	.	.	.	.	.	.	16ff#\	.
.	.	.	.	.	.	.	.	.	.	.	.	.	16gg#\JJ	.
.	.	.	.	.	.	.	.	.	.	.	.	.	16ccc#\LL	.
.	.	.	.	.	.	.	.	.	.	.	.	.	16gg#\	.
.	.	.	.	.	.	.	.	.	.	.	.	.	16ff#\	.
.	.	.	.	.	.	.	.	.	.	.	.	.	16gg#\JJ	.
=45	=45	=45	=45	=45	=45	=45	=45	=45	=45	=45	=45	=45	=45	=45
[2.F#\	.	2.r	2.r	.	[2.F#\	.	2.r	.	2.r	.	2.r	.	16aa\LL	.
.	.	.	.	.	.	.	.	.	.	.	.	.	16f#\	.
.	.	.	.	.	.	.	.	.	.	.	.	.	16e\	.
.	.	.	.	.	.	.	.	.	.	.	.	.	16f#\JJ	.
.	.	.	.	.	.	.	.	.	.	.	.	.	16a\LL	.
.	.	.	.	.	.	.	.	.	.	.	.	.	16cc#\	.
.	.	.	.	.	.	.	.	.	.	.	.	.	16b\	.
.	.	.	.	.	.	.	.	.	.	.	.	.	16cc#\JJ	.
.	.	.	.	.	.	.	.	.	.	.	.	.	16ff#\LL	.
.	.	.	.	.	.	.	.	.	.	.	.	.	16cc#\	.
.	.	.	.	.	.	.	.	.	.	.	.	.	16b\	.
.	.	.	.	.	.	.	.	.	.	.	.	.	16cc#\JJ	.
=46	=46	=46	=46	=46	=46	=46	=46	=46	=46	=46	=46	=46	=46	=46
2.F#\]	.	2.r	2.r	.	2.F#\]	.	2.r	.	2.r	.	2.r	.	16a/LL	.
.	.	.	.	.	.	.	.	.	.	.	.	.	16f#/	.
.	.	.	.	.	.	.	.	.	.	.	.	.	16e/	.
.	.	.	.	.	.	.	.	.	.	.	.	.	16f#/JJ	.
.	.	.	.	.	.	.	.	.	.	.	.	.	16a\LL	.
.	.	.	.	.	.	.	.	.	.	.	.	.	16cc#\	.
.	.	.	.	.	.	.	.	.	.	.	.	.	16b\	.
.	.	.	.	.	.	.	.	.	.	.	.	.	16cc#\JJ	.
.	.	.	.	.	.	.	.	.	.	.	.	.	16ff#\LL	.
.	.	.	.	.	.	.	.	.	.	.	.	.	16cc#\	.
.	.	.	.	.	.	.	.	.	.	.	.	.	16b\	.
.	.	.	.	.	.	.	.	.	.	.	.	.	16cc#\JJ	.
=47	=47	=47	=47	=47	=47	=47	=47	=47	=47	=47	=47	=47	=47	=47
[2.BB/	.	2.r	2.r	.	[2.BB/	.	2.r	.	2.r	.	2.r	.	16dd#\LL	.
.	.	.	.	.	.	.	.	.	.	.	.	.	16b\	.
.	.	.	.	.	.	.	.	.	.	.	.	.	16a\	.
.	.	.	.	.	.	.	.	.	.	.	.	.	16b\JJ	.
.	.	.	.	.	.	.	.	.	.	.	.	.	16dd#\LL	.
.	.	.	.	.	.	.	.	.	.	.	.	.	16ff#\	.
.	.	.	.	.	.	.	.	.	.	.	.	.	16ee\	.
.	.	.	.	.	.	.	.	.	.	.	.	.	16ff#\JJ	.
.	.	.	.	.	.	.	.	.	.	.	.	.	16bb\LL	.
.	.	.	.	.	.	.	.	.	.	.	.	.	16ff#\	.
.	.	.	.	.	.	.	.	.	.	.	.	.	16ee\	.
.	.	.	.	.	.	.	.	.	.	.	.	.	16ff#\JJ	.
=48	=48	=48	=48	=48	=48	=48	=48	=48	=48	=48	=48	=48	=48	=48
2.BB/]	.	2.r	2.r	.	2.BB/]	.	2.r	.	2.r	.	2.r	.	16dd#\LL	.
.	.	.	.	.	.	.	.	.	.	.	.	.	16b\	.
.	.	.	.	.	.	.	.	.	.	.	.	.	16a\	.
.	.	.	.	.	.	.	.	.	.	.	.	.	16b\JJ	.
.	.	.	.	.	.	.	.	.	.	.	.	.	16dd#\LL	.
.	.	.	.	.	.	.	.	.	.	.	.	.	16ff#\	.
.	.	.	.	.	.	.	.	.	.	.	.	.	16ee\	.
.	.	.	.	.	.	.	.	.	.	.	.	.	16ff#\JJ	.
.	.	.	.	.	.	.	.	.	.	.	.	.	16bb\LL	.
.	.	.	.	.	.	.	.	.	.	.	.	.	16ff#\	.
.	.	.	.	.	.	.	.	.	.	.	.	.	16ee\	.
.	.	.	.	.	.	.	.	.	.	.	.	.	16ff#\JJ	.
=49	=49	=49	=49	=49	=49	=49	=49	=49	=49	=49	=49	=49	=49	=49
[2.E\	.	2.r	2.r	.	[2.E\	.	2.r	.	2.r	.	2.r	.	16gg#\LL	.
.	.	.	.	.	.	.	.	.	.	.	.	.	16e\	.
.	.	.	.	.	.	.	.	.	.	.	.	.	16d#\	.
.	.	.	.	.	.	.	.	.	.	.	.	.	16e\JJ	.
.	.	.	.	.	.	.	.	.	.	.	.	.	16g#/LL	.
.	.	.	.	.	.	.	.	.	.	.	.	.	16b/	.
.	.	.	.	.	.	.	.	.	.	.	.	.	16a/	.
.	.	.	.	.	.	.	.	.	.	.	.	.	16b/JJ	.
.	.	.	.	.	.	.	.	.	.	.	.	.	16ee\LL	.
.	.	.	.	.	.	.	.	.	.	.	.	.	16b\	.
.	.	.	.	.	.	.	.	.	.	.	.	.	16a\	.
.	.	.	.	.	.	.	.	.	.	.	.	.	16b\JJ	.
=50	=50	=50	=50	=50	=50	=50	=50	=50	=50	=50	=50	=50	=50	=50
2.E\]	.	2.r	2.r	.	2.E\]	.	2.r	.	2.r	.	2.r	.	16g#/LL	.
.	.	.	.	.	.	.	.	.	.	.	.	.	16e/	.
.	.	.	.	.	.	.	.	.	.	.	.	.	16d#/	.
.	.	.	.	.	.	.	.	.	.	.	.	.	16e/JJ	.
.	.	.	.	.	.	.	.	.	.	.	.	.	16g#/LL	.
.	.	.	.	.	.	.	.	.	.	.	.	.	16b/	.
.	.	.	.	.	.	.	.	.	.	.	.	.	16a/	.
.	.	.	.	.	.	.	.	.	.	.	.	.	16b/JJ	.
.	.	.	.	.	.	.	.	.	.	.	.	.	16ee\LL	.
.	.	.	.	.	.	.	.	.	.	.	.	.	16b\	.
.	.	.	.	.	.	.	.	.	.	.	.	.	16a\	.
.	.	.	.	.	.	.	.	.	.	.	.	.	16b\JJ	.
=51	=51	=51	=51	=51	=51	=51	=51	=51	=51	=51	=51	=51	=51	=51
[2.AA/	.	2.r	2.r	.	[2.AA/	.	2.r	.	2.r	.	2.r	.	16cc#/LL	.
.	.	.	.	.	.	.	.	.	.	.	.	.	16a/	.
.	.	.	.	.	.	.	.	.	.	.	.	.	16g#/	.
.	.	.	.	.	.	.	.	.	.	.	.	.	16a/JJ	.
.	.	.	.	.	.	.	.	.	.	.	.	.	16cc#\LL	.
.	.	.	.	.	.	.	.	.	.	.	.	.	16ee\	.
.	.	.	.	.	.	.	.	.	.	.	.	.	16dd\	.
.	.	.	.	.	.	.	.	.	.	.	.	.	16ee\JJ	.
.	.	.	.	.	.	.	.	.	.	.	.	.	16aa\LL	.
.	.	.	.	.	.	.	.	.	.	.	.	.	16ee\	.
.	.	.	.	.	.	.	.	.	.	.	.	.	16dd\	.
.	.	.	.	.	.	.	.	.	.	.	.	.	16ee\JJ	.
=52	=52	=52	=52	=52	=52	=52	=52	=52	=52	=52	=52	=52	=52	=52
2.AA/]	.	2.r	2.r	.	2.AA/]	.	2.r	.	2.r	.	2.r	.	16cc#/LL	.
.	.	.	.	.	.	.	.	.	.	.	.	.	16a/	.
.	.	.	.	.	.	.	.	.	.	.	.	.	16g#/	.
.	.	.	.	.	.	.	.	.	.	.	.	.	16a/JJ	.
.	.	.	.	.	.	.	.	.	.	.	.	.	16cc#\LL	.
.	.	.	.	.	.	.	.	.	.	.	.	.	16ee\	.
.	.	.	.	.	.	.	.	.	.	.	.	.	16dd\	.
.	.	.	.	.	.	.	.	.	.	.	.	.	16ee\JJ	.
.	.	.	.	.	.	.	.	.	.	.	.	.	16aa\LL	.
.	.	.	.	.	.	.	.	.	.	.	.	.	16ee\	.
.	.	.	.	.	.	.	.	.	.	.	.	.	16dd\	.
.	.	.	.	.	.	.	.	.	.	.	.	.	16ee\JJ	.
=53	=53	=53	=53	=53	=53	=53	=53	=53	=53	=53	=53	=53	=53	=53
[2.D\	.	2.r	2.r	.	[2.D\	.	2.r	.	2.r	.	2.r	.	16ff#/LL	.
.	.	.	.	.	.	.	.	.	.	.	.	.	16d/	.
.	.	.	.	.	.	.	.	.	.	.	.	.	16c#/	.
.	.	.	.	.	.	.	.	.	.	.	.	.	16d/JJ	.
.	.	.	.	.	.	.	.	.	.	.	.	.	16f#/LL	.
.	.	.	.	.	.	.	.	.	.	.	.	.	16a/	.
.	.	.	.	.	.	.	.	.	.	.	.	.	16g/	.
.	.	.	.	.	.	.	.	.	.	.	.	.	16a/JJ	.
.	.	.	.	.	.	.	.	.	.	.	.	.	16dd/LL	.
.	.	.	.	.	.	.	.	.	.	.	.	.	16a/	.
.	.	.	.	.	.	.	.	.	.	.	.	.	16g/	.
.	.	.	.	.	.	.	.	.	.	.	.	.	16a/JJ	.
=54	=54	=54	=54	=54	=54	=54	=54	=54	=54	=54	=54	=54	=54	=54
2.D\]	.	2.r	2.r	.	2.D\]	.	2.r	.	2.r	.	2.r	.	16f#/LL	.
.	.	.	.	.	.	.	.	.	.	.	.	.	16d/	.
.	.	.	.	.	.	.	.	.	.	.	.	.	16c#/	.
.	.	.	.	.	.	.	.	.	.	.	.	.	16d/JJ	.
.	.	.	.	.	.	.	.	.	.	.	.	.	16f#/LL	.
.	.	.	.	.	.	.	.	.	.	.	.	.	16a/	.
.	.	.	.	.	.	.	.	.	.	.	.	.	16g/	.
.	.	.	.	.	.	.	.	.	.	.	.	.	16a/JJ	.
.	.	.	.	.	.	.	.	.	.	.	.	.	16dd/LL	.
.	.	.	.	.	.	.	.	.	.	.	.	.	16a/	.
.	.	.	.	.	.	.	.	.	.	.	.	.	16g/	.
.	.	.	.	.	.	.	.	.	.	.	.	.	16a/JJ	.
=55	=55	=55	=55	=55	=55	=55	=55	=55	=55	=55	=55	=55	=55	=55
2.G\	.	2.r	2.r	.	2.G\	.	2.r	.	2.r	.	2.r	.	16b/LL	.
.	.	.	.	.	.	.	.	.	.	.	.	.	16g/	.
.	.	.	.	.	.	.	.	.	.	.	.	.	16f#/	.
.	.	.	.	.	.	.	.	.	.	.	.	.	16g/JJ	.
.	.	.	.	.	.	.	.	.	.	.	.	.	16b\LL	.
.	.	.	.	.	.	.	.	.	.	.	.	.	16dd\	.
.	.	.	.	.	.	.	.	.	.	.	.	.	16cc#\	.
.	.	.	.	.	.	.	.	.	.	.	.	.	16dd\JJ	.
.	.	.	.	.	.	.	.	.	.	.	.	.	16gg\LL	.
.	.	.	.	.	.	.	.	.	.	.	.	.	16bb\	.
.	.	.	.	.	.	.	.	.	.	.	.	.	16aa\	.
.	.	.	.	.	.	.	.	.	.	.	.	.	16bb\JJ	.
=56	=56	=56	=56	=56	=56	=56	=56	=56	=56	=56	=56	=56	=56	=56
2.F#\	.	2.r	2.r	.	2.F#\	.	2.r	.	2.r	.	2.r	.	16c#/LL	.
.	.	.	.	.	.	.	.	.	.	.	.	.	16f#/	.
.	.	.	.	.	.	.	.	.	.	.	.	.	16a#/	.
.	.	.	.	.	.	.	.	.	.	.	.	.	16ee/JJ	.
.	.	.	.	.	.	.	.	.	.	.	.	.	16c#/LL	.
.	.	.	.	.	.	.	.	.	.	.	.	.	16f#/	.
.	.	.	.	.	.	.	.	.	.	.	.	.	16a#/	.
.	.	.	.	.	.	.	.	.	.	.	.	.	16ee/JJ	.
.	.	.	.	.	.	.	.	.	.	.	.	.	16c#/LL	.
.	.	.	.	.	.	.	.	.	.	.	.	.	16f#/	.
.	.	.	.	.	.	.	.	.	.	.	.	.	16a#/	.
.	.	.	.	.	.	.	.	.	.	.	.	.	16ee/JJ	.
=57	=57	=57	=57	=57	=57	=57	=57	=57	=57	=57	=57	=57	=57	=57
2.BB/	.	2.r	2.r	.	2.BB/	.	2.r	.	2.r	.	2.r	.	16B/LL	.
.	.	.	.	.	.	.	.	.	.	.	.	.	16f#/	.
.	.	.	.	.	.	.	.	.	.	.	.	.	16dd/	.
.	.	.	.	.	.	.	.	.	.	.	.	.	16ff#/JJ	.
.	.	.	.	.	.	.	.	.	.	.	.	.	16B/LL	.
.	.	.	.	.	.	.	.	.	.	.	.	.	16f#/	.
.	.	.	.	.	.	.	.	.	.	.	.	.	16dd/	.
.	.	.	.	.	.	.	.	.	.	.	.	.	16ff#/JJ	.
.	.	.	.	.	.	.	.	.	.	.	.	.	16B/LL	.
.	.	.	.	.	.	.	.	.	.	.	.	.	16f#/	.
.	.	.	.	.	.	.	.	.	.	.	.	.	16dd/	.
.	.	.	.	.	.	.	.	.	.	.	.	.	16ff#/JJ	.
=58	=58	=58	=58	=58	=58	=58	=58	=58	=58	=58	=58	=58	=58	=58
2.E\	.	2.r	2.r	.	2.E\	.	2.r	.	2.r	.	2.r	.	16G/LL	.
.	.	.	.	.	.	.	.	.	.	.	.	.	16e/	.
.	.	.	.	.	.	.	.	.	.	.	.	.	16b/	.
.	.	.	.	.	.	.	.	.	.	.	.	.	16gg/JJ	.
.	.	.	.	.	.	.	.	.	.	.	.	.	16G/LL	.
.	.	.	.	.	.	.	.	.	.	.	.	.	16e/	.
.	.	.	.	.	.	.	.	.	.	.	.	.	16b/	.
.	.	.	.	.	.	.	.	.	.	.	.	.	16gg/JJ	.
.	.	.	.	.	.	.	.	.	.	.	.	.	16G/LL	.
.	.	.	.	.	.	.	.	.	.	.	.	.	16e/	.
.	.	.	.	.	.	.	.	.	.	.	.	.	16b/	.
.	.	.	.	.	.	.	.	.	.	.	.	.	16gg/JJ	.
=59	=59	=59	=59	=59	=59	=59	=59	=59	=59	=59	=59	=59	=59	=59
2F#\	.	2.r	2.r	.	2F#\	.	2.r	.	2.r	.	2.r	.	16A#\LL	.
.	.	.	.	.	.	.	.	.	.	.	.	.	16f#\	.
.	.	.	.	.	.	.	.	.	.	.	.	.	16cc#\	.
.	.	.	.	.	.	.	.	.	.	.	.	.	16aa#\JJ	.
.	.	.	.	.	.	.	.	.	.	.	.	.	16A#\LL	.
.	.	.	.	.	.	.	.	.	.	.	.	.	16f#\	.
.	.	.	.	.	.	.	.	.	.	.	.	.	16cc#\	.
.	.	.	.	.	.	.	.	.	.	.	.	.	16aa#\JJ	.
4E\	.	.	.	.	4E\	.	.	.	.	.	.	.	16A#\LL	.
.	.	.	.	.	.	.	.	.	.	.	.	.	16f#\	.
.	.	.	.	.	.	.	.	.	.	.	.	.	16cc#\	.
.	.	.	.	.	.	.	.	.	.	.	.	.	16aa#\JJ	.
=60	=60	=60	=60	=60	=60	=60	=60	=60	=60	=60	=60	=60	=60	=60
2.D\	.	2.r	2.r	.	2.D\	.	2.r	.	2.r	.	2.r	.	16f#\LL	.
.	.	.	.	.	.	.	.	.	.	.	.	.	16dd\	.
.	.	.	.	.	.	.	.	.	.	.	.	.	16bb\	.
.	.	.	.	.	.	.	.	.	.	.	.	.	16dd\JJ	.
.	.	.	.	.	.	.	.	.	.	.	.	.	16f#\LL	.
.	.	.	.	.	.	.	.	.	.	.	.	.	16dd\	.
.	.	.	.	.	.	.	.	.	.	.	.	.	16bb\	.
.	.	.	.	.	.	.	.	.	.	.	.	.	16dd\JJ	.
.	.	.	.	.	.	.	.	.	.	.	.	.	16f#\LL	.
.	.	.	.	.	.	.	.	.	.	.	.	.	16dd\	.
.	.	.	.	.	.	.	.	.	.	.	.	.	16bb\	.
.	.	.	.	.	.	.	.	.	.	.	.	.	16dd\JJ	.
=61	=61	=61	=61	=61	=61	=61	=61	=61	=61	=61	=61	=61	=61	=61
2.EE#/	.	2.r	2.r	.	2.EE#/	.	2.r	.	2.r	.	2.r	.	16e#\LL	.
.	.	.	.	.	.	.	.	.	.	.	.	.	16dd\	.
.	.	.	.	.	.	.	.	.	.	.	.	.	16bb\	.
.	.	.	.	.	.	.	.	.	.	.	.	.	16dd\JJ	.
.	.	.	.	.	.	.	.	.	.	.	.	.	16e#\LL	.
.	.	.	.	.	.	.	.	.	.	.	.	.	16dd\	.
.	.	.	.	.	.	.	.	.	.	.	.	.	16bb\	.
.	.	.	.	.	.	.	.	.	.	.	.	.	16dd\JJ	.
.	.	.	.	.	.	.	.	.	.	.	.	.	16e#\LL	.
.	.	.	.	.	.	.	.	.	.	.	.	.	16dd\	.
.	.	.	.	.	.	.	.	.	.	.	.	.	16bb\	.
.	.	.	.	.	.	.	.	.	.	.	.	.	16dd\JJ	.
=62	=62	=62	=62	=62	=62	=62	=62	=62	=62	=62	=62	=62	=62	=62
2.FF#/	.	2.r	2.r	.	2.FF#/	.	2.r	.	2.r	.	2.r	.	16f#\LL	.
.	.	.	.	.	.	.	.	.	.	.	.	.	16cc#\	.
.	.	.	.	.	.	.	.	.	.	.	.	.	16aa#\	.
.	.	.	.	.	.	.	.	.	.	.	.	.	16cc#\JJ	.
.	.	.	.	.	.	.	.	.	.	.	.	.	16f#\LL	.
.	.	.	.	.	.	.	.	.	.	.	.	.	16cc#\	.
.	.	.	.	.	.	.	.	.	.	.	.	.	16aa#\	.
.	.	.	.	.	.	.	.	.	.	.	.	.	16cc#\JJ	.
.	.	.	.	.	.	.	.	.	.	.	.	.	16f#\LL	.
.	.	.	.	.	.	.	.	.	.	.	.	.	16cc#\	.
.	.	.	.	.	.	.	.	.	.	.	.	.	16aa#\	.
.	.	.	.	.	.	.	.	.	.	.	.	.	16cc#\JJ	.
=63	=63	=63	=63	=63	=63	=63	=63	=63	=63	=63	=63	=63	=63	=63
*	*	*	*	*	*	*	*	*	*	*	*	*	*^	*
4BB/	f	2.r	4BB/	f	4BB/	f	4d\	f	4b\	f	4b\	f	4dd/ 4bb/	8B\ 8f#\	.
.	.	.	.	.	.	.	.	.	.	.	.	.	.	8r	.
*	*	*	*	*	*	*	*	*	*	*	*	*	*v	*v	*
8r	.	.	8r	.	8r	.	8r	.	4dd\	.	4dd\	.	4dd\	f
16BB/LL	.	.	16BB/LL	.	16BB/LL	.	8f#\	.	.	.	.	.	.	.
16C#/JJ	.	.	16C#/JJ	.	16C#/JJ	.	.	.	.	.	.	.	.	.
8D/L	.	.	8D/L	.	8D/L	.	8f#\L	.	4ff#\	.	4ff#\	.	4ff#\	.
8BB/J	.	.	8BB/J	.	8BB/J	.	8d\J	.	.	.	.	.	.	.
=64	=64	=64	=64	=64	=64	=64	=64	=64	=64	=64	=64	=64	=64	=64
4E\	.	2.r	4E\	.	4E\	.	4B/	.	4g/	.	4g/	.	4g/	.
8r	.	.	8r	.	8r	.	8r	.	4b\	.	4b\	.	4b\	.
16E\LL	.	.	16E\LL	.	16E\LL	.	16g\LL	.	.	.	.	.	.	.
16F#\JJ	.	.	16F#\JJ	.	16F#\JJ	.	16a\JJ	.	.	.	.	.	.	.
(8G\L	.	.	8G\L	.	8G\L	.	8b\L	.	4ee\	.	4ee\	.	4ee\	.
8E\J)	.	.	8E\J	.	8E\J	.	8g\J	.	.	.	.	.	.	.
=65	=65	=65	=65	=65	=65	=65	=65	=65	=65	=65	=65	=65	=65	=65
4F#\	.	2.r	4F#\	.	4F#\	.	4c#\	.	4a#/	.	4a#/	.	4a#/	.
8r	.	.	8r	.	8r	.	8r	.	4cc#\	.	4cc#\	.	4cc#\	.
16F#\LL	.	.	16F#\LL	.	16F#\LL	.	8a#\	.	.	.	.	.	.	.
16G#\JJ	.	.	16G#\JJ	.	16G#\JJ	.	.	.	.	.	.	.	.	.
8F#/L	.	.	8F#/L	.	8F#/L	.	8a#\L	.	4ee\	.	4ee\	.	4ee\	.
8FF#/J	.	.	8FF#/J	.	8FF#/J	.	8a#\J	.	.	.	.	.	.	.
=66	=66	=66	=66	=66	=66	=66	=66	=66	=66	=66	=66	=66	=66	=66
4BB/	.	2.r	4BB/	.	4BB/	.	4f#\	.	16dd\LL	.	16dd\LL	.	16dd\LL	.
.	.	.	.	.	.	.	.	.	16b\	.	16b\	.	16b\	.
.	.	.	.	.	.	.	.	.	16cc#\	.	16cc#\	.	16cc#\	.
.	.	.	.	.	.	.	.	.	16dd\JJ	.	16dd\JJ	.	16dd\JJ	.
8r	.	.	8r	.	8r	.	8r	.	16ee\LL	.	16ee\LL	.	16ee\LL	.
.	.	.	.	.	.	.	.	.	16ff#\	.	16ff#\	.	16ff#\	.
16BB/LL	.	.	16BB/LL	.	16BB/LL	.	8f#\	.	16gg#\	.	16gg#\	.	16gg#\	.
16C#/JJ	.	.	16C#/JJ	.	16C#/JJ	.	.	.	16aa#\JJ	.	16aa#\JJ	.	16aa#\JJ	.
8D/L	.	.	8D/L	.	8D/L	.	8f#\L	.	8bb\	.	8bb\	.	8bb\	.
8BB/J	.	.	8BB/J	.	8BB/J	.	8d\J	.	8r	.	8r	.	8r	.
=67	=67	=67	=67	=67	=67	=67	=67	=67	=67	=67	=67	=67	=67	=67
4F#\	.	2.r	4F#\	.	4F#\	.	4c#\	.	4a#/	.	4a#/	.	4a#/	.
8r	.	.	8r	.	8r	.	8r	.	4cc#\	.	4cc#\	.	4cc#\	.
16F#\LL	.	.	16F#\LL	.	16F#\LL	.	8a#\	.	.	.	.	.	.	.
16G#\JJ	.	.	16G#\JJ	.	16G#\JJ	.	.	.	.	.	.	.	.	.
8F#/L	.	.	8F#/L	.	8F#/L	.	8a#\L	.	4ff#\	.	4ff#\	.	4ff#\	.
8FF#/J	.	.	8FF#/J	.	8FF#/J	.	8a#\J	.	.	.	.	.	.	.
=68	=68	=68	=68	=68	=68	=68	=68	=68	=68	=68	=68	=68	=68	=68
4BB/	.	2.r	4BB/	.	4BB/	.	4f#\	.	16dd\LL	.	16dd\LL	.	16dd\LL	.
.	.	.	.	.	.	.	.	.	16b\	.	16b\	.	16b\	.
.	.	.	.	.	.	.	.	.	16cc#\	.	16cc#\	.	16cc#\	.
.	.	.	.	.	.	.	.	.	16dd\JJ	.	16dd\JJ	.	16dd\JJ	.
8r	.	.	8r	.	8r	.	8r	.	16ee\LL	.	16ee\LL	.	16ee\LL	.
.	.	.	.	.	.	.	.	.	16ff#\	.	16ff#\	.	16ff#\	.
16BB/LL	.	.	16BB/LL	.	16BB/LL	.	8f#\	.	16gg#\	.	16gg#\	.	16gg#\	.
16C#/JJ	.	.	16C#/JJ	.	16C#/JJ	.	.	.	16aa#\JJ	.	16aa#\JJ	.	16aa#\JJ	.
8D/L	.	.	8D/L	.	8D/L	.	8f#\L	.	8bb\	.	8bb\	.	8bb\	.
8BB/J	.	.	8BB/J	.	8BB/J	.	8d\J	.	8r	.	8r	.	8r	.
=69	=69	=69	=69	=69	=69	=69	=69	=69	=69	=69	=69	=69	=69	=69
4F#\	.	2.r	4F#\	.	4F#\	.	4c#\	.	4a#/	.	4a#/	.	4a#/	.
8r	.	.	8r	.	8r	.	8r	.	4cc#\	.	4cc#\	.	4cc#\	.
16F#\LL	.	.	16F#\LL	.	16F#\LL	.	8a#\	.	.	.	.	.	.	.
16G#\JJ	.	.	16G#\JJ	.	16G#\JJ	.	.	.	.	.	.	.	.	.
8F#/L	.	.	8F#/L	.	8F#/L	.	8a#\L	.	4ff#\	.	4ff#\	.	4ff#\	.
8FF#/J	.	.	8FF#/J	.	8FF#/J	.	8a#\J	.	.	.	.	.	.	.
=70	=70	=70	=70	=70	=70	=70	=70	=70	=70	=70	=70	=70	=70	=70
4BB/	.	2.r	4BB/	.	4BB/	.	4f#\	.	16dd\LL	.	16dd\LL	.	16dd\LL	.
.	.	.	.	.	.	.	.	.	16b\	.	16b\	.	16b\	.
.	.	.	.	.	.	.	.	.	16cc#\	.	16cc#\	.	16cc#\	.
.	.	.	.	.	.	.	.	.	16dd\JJ	.	16dd\JJ	.	16dd\JJ	.
8r	.	.	8r	.	8r	.	8r	.	16ee\LL	.	16ee\LL	.	16ee\LL	.
.	.	.	.	.	.	.	.	.	16ff#\	.	16ff#\	.	16ff#\	.
16BB/LL	.	.	16BB/LL	.	16BB/LL	.	8f#\	.	16gg#\	.	16gg#\	.	16gg#\	.
16C#/JJ	.	.	16C#/JJ	.	16C#/JJ	.	.	.	16aa#\JJ	.	16aa#\JJ	.	16aa#\JJ	.
8D/L	.	.	8D/L	.	8D/L	.	8f#\L	.	8bb\	.	8bb\	.	8bb\	.
8C#/J	.	.	8C#/J	.	8C#/J	.	8e\J	.	8r	.	8r	.	8r	.
=71	=71	=71	=71	=71	=71	=71	=71	=71	=71	=71	=71	=71	=71	=71
4BB/	.	2.r	4BB/	.	4BB/	.	4f#\	.	4b\	.	4dd\	.	4dd\	.
4EE/	.	.	4EE/	.	4EE/	.	4g\	.	4cc#\	.	4ee\	.	4ee\	.
4FF#/	.	.	4FF#/	.	4FF#/	.	4f#\	.	4a#/	.	4cc#\	.	4cc#\	.
=72	=72	=72	=72	=72	=72	=72	=72	=72	=72	=72	=72	=72	=72	=72
4BB/	.	2.r	4BB/	.	4BB/	.	4f#\	.	8b\L	.	8dd\L	.	16b/LL	.
.	.	.	.	.	.	.	.	.	.	.	.	.	16b/	.
.	.	.	.	.	.	.	.	.	8b\J	p	8b\J	p	16f#/	.
.	.	.	.	.	.	.	.	.	.	.	.	.	16b/JJ	.
8r	.	.	8r	.	8r	.	8r	.	4B/	.	4B/	.	16d/LL	.
.	.	.	.	.	.	.	.	.	.	.	.	.	16b/	.
8B\	p	.	8B\	p	8B\	p	8b\	p	.	.	.	.	16f#/	.
.	.	.	.	.	.	.	.	.	.	.	.	.	16b/JJ	.
8BB\L	.	.	8BB\L	.	8BB\L	.	8B\L	.	4r	.	4r	.	16d/LL	.
.	.	.	.	.	.	.	.	.	.	.	.	.	16b/	.
8B\J	.	.	8B\J	.	8B\J	.	8b\J	.	.	.	.	.	16f#/	.
.	.	.	.	.	.	.	.	.	.	.	.	.	16b/JJ	.
=73	=73	=73	=73	=73	=73	=73	=73	=73	=73	=73	=73	=73	=73	=73
4BB/	.	2.r	4BB/	.	4BB/	.	4B/	.	8r	.	8r	.	16d/LL	.
.	.	.	.	.	.	.	.	.	.	.	.	.	16dd/	.
.	.	.	.	.	.	.	.	.	8b\	.	8b\	.	16b/	.
.	.	.	.	.	.	.	.	.	.	.	.	.	16dd/JJ	.
8r	.	.	8r	.	8r	.	8r	.	4B/	.	4B/	.	16f#/LL	.
.	.	.	.	.	.	.	.	.	.	.	.	.	16dd/	.
8B\	.	.	8B\	.	8B\	.	8b\	.	.	.	.	.	16b/	.
.	.	.	.	.	.	.	.	.	.	.	.	.	16dd/JJ	.
8BB\L	.	.	8BB\L	.	8BB\L	.	8B\L	.	4r	.	4r	.	16f#/LL	.
.	.	.	.	.	.	.	.	.	.	.	.	.	16dd/	.
8B\J	.	.	8B\J	.	8B\J	.	8b\J	.	.	.	.	.	16b/	.
.	.	.	.	.	.	.	.	.	.	.	.	.	16dd/JJ	.
=74	=74	=74	=74	=74	=74	=74	=74	=74	=74	=74	=74	=74	=74	=74
4BB/	.	2.r	4BB/	.	4BB/	.	4B/	.	8r	.	8r	.	16b\LL	.
.	.	.	.	.	.	.	.	.	.	.	.	.	16ff#\	.
.	.	.	.	.	.	.	.	.	8b\	.	8b\	.	16dd\	.
.	.	.	.	.	.	.	.	.	.	.	.	.	16ff#\JJ	.
8r	.	.	8r	.	8r	.	8r	.	4B/	.	4B/	.	16b\LL	.
.	.	.	.	.	.	.	.	.	.	.	.	.	16ff#\	.
8B\	.	.	8B\	.	8B\	.	8b\	.	.	.	.	.	16dd\	.
.	.	.	.	.	.	.	.	.	.	.	.	.	16ff#\JJ	.
8BB\L	.	.	8BB\L	.	8BB\L	.	8B\L	.	4r	.	4r	.	16b\LL	.
.	.	.	.	.	.	.	.	.	.	.	.	.	16ff#\	.
8B\J	.	.	8B\J	.	8B\J	.	8b\J	.	.	.	.	.	16dd\	.
.	.	.	.	.	.	.	.	.	.	.	.	.	16ff#\JJ	.
=75	=75	=75	=75	=75	=75	=75	=75	=75	=75	=75	=75	=75	=75	=75
4BB/	.	2.r	4BB/	.	4BB/	.	4B/	.	8r	.	8r	.	16b\LL	.
.	.	.	.	.	.	.	.	.	.	.	.	.	16bb\	.
.	.	.	.	.	.	.	.	.	8b\	.	8b\	.	16ff#\	.
.	.	.	.	.	.	.	.	.	.	.	.	.	16bb\JJ	.
8r	.	.	8r	.	8r	.	8r	.	4B/	.	4B/	.	16dd\LL	.
.	.	.	.	.	.	.	.	.	.	.	.	.	16bb\	.
8B\	.	.	8B\	.	8B\	.	8b\	.	.	.	.	.	16ff#\	.
.	.	.	.	.	.	.	.	.	.	.	.	.	16bb\JJ	.
8BB\L	.	.	8BB\L	.	8BB\L	.	8B\L	.	4r	.	4r	.	16dd\LL	.
.	.	.	.	.	.	.	.	.	.	.	.	.	16bb\	.
8B\J	.	.	8B\J	.	8B\J	.	8b\J	.	.	.	.	.	16ff#\	.
.	.	.	.	.	.	.	.	.	.	.	.	.	16bb\JJ	.
=76	=76	=76	=76	=76	=76	=76	=76	=76	=76	=76	=76	=76	=76	=76
4E\	.	2.r	4E\	.	4E\	.	4e\	.	8r	.	8r	.	16gg\LL	.
.	.	.	.	.	.	.	.	.	.	.	.	.	16bb\	.
.	.	.	.	.	.	.	.	.	8ee\	.	8ee\	.	16gg\	.
.	.	.	.	.	.	.	.	.	.	.	.	.	16bb\JJ	.
8r	.	.	8r	.	8r	.	8r	.	4e/	.	4e/	.	16ee\LL	.
.	.	.	.	.	.	.	.	.	.	.	.	.	16bb\	.
8e\	.	.	8e\	.	8e\	.	8ee\	.	.	.	.	.	16gg\	.
.	.	.	.	.	.	.	.	.	.	.	.	.	16bb\JJ	.
8E\L	.	.	8E\L	.	8E\L	.	8e\L	.	4r	.	4r	.	16ee\LL	.
.	.	.	.	.	.	.	.	.	.	.	.	.	16bb\	.
8e\J	.	.	8e\J	.	8e\J	.	8ee\J	.	.	.	.	.	16gg\	.
.	.	.	.	.	.	.	.	.	.	.	.	.	16bb\JJ	.
=77	=77	=77	=77	=77	=77	=77	=77	=77	=77	=77	=77	=77	=77	=77
4A\	.	2.r	4A\	.	4A\	.	4a\	.	8r	.	8r	.	16cc#\LL	.
.	.	.	.	.	.	.	.	.	.	.	.	.	16aa\	.
.	.	.	.	.	.	.	.	.	8cc#\	.	8cc#\	.	16ee\	.
.	.	.	.	.	.	.	.	.	.	.	.	.	16aa\JJ	.
8r	.	.	8r	.	8r	.	8r	.	4a/	.	4a/	.	16cc#\LL	.
.	.	.	.	.	.	.	.	.	.	.	.	.	16aa\	.
8c#\	.	.	8c#\	.	8c#\	.	8cc#\	.	.	.	.	.	16ee\	.
.	.	.	.	.	.	.	.	.	.	.	.	.	16aa\JJ	.
8A\L	.	.	8A\L	.	8A\L	.	8a\L	.	4r	.	4r	.	16cc#\LL	.
.	.	.	.	.	.	.	.	.	.	.	.	.	16aa\	.
8c#\J	.	.	8c#\J	.	8c#\J	.	8cc#\J	.	.	.	.	.	16ee\	.
.	.	.	.	.	.	.	.	.	.	.	.	.	16aa\JJ	.
=78	=78	=78	=78	=78	=78	=78	=78	=78	=78	=78	=78	=78	=78	=78
4D\	.	2.r	4D\	.	4D\	.	4d\	.	8r	.	8r	.	16dd\LL	.
.	.	.	.	.	.	.	.	.	.	.	.	.	16aa\	.
.	.	.	.	.	.	.	.	.	8dd\	.	8dd\	.	16ff#\	.
.	.	.	.	.	.	.	.	.	.	.	.	.	16aa\JJ	.
8r	.	.	8r	.	8r	.	8r	.	4d/	.	4d/	.	16dd\LL	.
.	.	.	.	.	.	.	.	.	.	.	.	.	16aa\	.
8d\	.	.	8d\	.	8d\	.	8dd\	.	.	.	.	.	16ff#\	.
.	.	.	.	.	.	.	.	.	.	.	.	.	16aa\JJ	.
8D\L	.	.	8D\L	.	8D\L	.	8d\L	.	4r	.	4r	.	16dd\LL	.
.	.	.	.	.	.	.	.	.	.	.	.	.	16aa\	.
8d\J	.	.	8d\J	.	8d\J	.	8dd\J	.	.	.	.	.	16ff#\	.
.	.	.	.	.	.	.	.	.	.	.	.	.	16aa\JJ	.
=79	=79	=79	=79	=79	=79	=79	=79	=79	=79	=79	=79	=79	=79	=79
4G\	.	2.r	4G\	.	4G\	.	4g\	.	8r	.	8r	.	16b\LL	.
.	.	.	.	.	.	.	.	.	.	.	.	.	16gg\	.
.	.	.	.	.	.	.	.	.	8b\	.	8b\	.	16dd\	.
.	.	.	.	.	.	.	.	.	.	.	.	.	16gg\JJ	.
8r	.	.	8r	.	8r	.	8r	.	4g/	.	4g/	.	16b\LL	.
.	.	.	.	.	.	.	.	.	.	.	.	.	16gg\	.
8G\	.	.	8G\	.	8G\	.	8g\	.	.	.	.	.	16dd\	.
.	.	.	.	.	.	.	.	.	.	.	.	.	16gg\JJ	.
8GG/L	.	.	8GG/L	.	8GG/L	.	8G\L	.	4r	.	4r	.	16b\LL	.
.	.	.	.	.	.	.	.	.	.	.	.	.	16gg\	.
8G/J	.	.	8G/J	.	8G/J	.	8g\J	.	.	.	.	.	16dd\	.
.	.	.	.	.	.	.	.	.	.	.	.	.	16gg\JJ	.
=80	=80	=80	=80	=80	=80	=80	=80	=80	=80	=80	=80	=80	=80	=80
4AA/	.	2.r	4AA/	.	4AA/	.	4A/	.	8r	.	8r	.	16cc#\LL	.
.	.	.	.	.	.	.	.	.	.	.	.	.	16gg\	.
.	.	.	.	.	.	.	.	.	8a/	.	8a/	.	16ee\	.
.	.	.	.	.	.	.	.	.	.	.	.	.	16gg\JJ	.
8r	.	.	8r	.	8r	.	8r	.	4A/	.	4A/	.	16cc#\LL	.
.	.	.	.	.	.	.	.	.	.	.	.	.	16gg\	.
8A\	.	.	8A\	.	8A\	.	8a\	.	.	.	.	.	16ee\	.
.	.	.	.	.	.	.	.	.	.	.	.	.	16gg\JJ	.
8AA\L	.	.	8AA\L	.	8AA\L	.	8A\L	.	4r	.	4r	.	16cc#\LL	.
.	.	.	.	.	.	.	.	.	.	.	.	.	16gg\	.
8A\J	.	.	8A\J	.	8A\J	.	8a\J	.	.	.	.	.	16ee\	.
.	.	.	.	.	.	.	.	.	.	.	.	.	16gg\JJ	.
=81	=81	=81	=81	=81	=81	=81	=81	=81	=81	=81	=81	=81	=81	=81
4D\	.	2.r	4D\	.	4D\	.	4d\	.	8r	.	8r	.	16dd\LL	.
.	.	.	.	.	.	.	.	.	.	.	.	.	16ff#\	.
.	.	.	.	.	.	.	.	.	8dd\	.	8dd\	.	16dd\	.
.	.	.	.	.	.	.	.	.	.	.	.	.	16ff#\JJ	.
8r	.	.	8r	.	8r	.	8r	.	4d/	.	4d/	.	16a\LL	.
.	.	.	.	.	.	.	.	.	.	.	.	.	16ff#\	.
8d\	.	.	8d\	.	8d\	.	8dd\	.	.	.	.	.	16dd\	.
.	.	.	.	.	.	.	.	.	.	.	.	.	16ff#\JJ	.
8D\L	.	.	8D\L	.	8D\L	.	8d\L	.	4r	.	4r	.	16a\LL	.
.	.	.	.	.	.	.	.	.	.	.	.	.	16ff#\	.
8d\J	.	.	8d\J	.	8d\J	.	8dd\J	.	.	.	.	.	16dd\	.
.	.	.	.	.	.	.	.	.	.	.	.	.	16ff#\JJ	.
=82	=82	=82	=82	=82	=82	=82	=82	=82	=82	=82	=82	=82	=82	=82
4C#/	.	2.r	4C#/	.	4C#/	.	4c#\	.	8r	.	8r	.	16a\LL	.
.	.	.	.	.	.	.	.	.	.	.	.	.	16ee\	.
.	.	.	.	.	.	.	.	.	8a/	.	8a/	.	16cc#\	.
.	.	.	.	.	.	.	.	.	.	.	.	.	16ee\JJ	.
8r	.	.	8r	.	8r	.	8r	.	4A/	.	4A/	.	16a\LL	.
.	.	.	.	.	.	.	.	.	.	.	.	.	16ee\	.
8A\	.	.	8A\	.	8A\	.	8a\	.	.	.	.	.	16cc#\	.
.	.	.	.	.	.	.	.	.	.	.	.	.	16ee\JJ	.
8AA\L	.	.	8AA\L	.	8AA\L	.	8A\L	.	4r	.	4r	.	16a\LL	.
.	.	.	.	.	.	.	.	.	.	.	.	.	16ee\	.
8A\J	.	.	8A\J	.	8A\J	.	8a\J	.	.	.	.	.	16cc#\	.
.	.	.	.	.	.	.	.	.	.	.	.	.	16ee\JJ	.
=83	=83	=83	=83	=83	=83	=83	=83	=83	=83	=83	=83	=83	=83	=83
4D\	f	2.r	4D\	f	4D\	f	4f#\	f	4dd\	f	4dd\	f	4dd\	f
8r	.	.	8r	.	8r	.	8r	.	4a/	.	4a/	.	4a/	.
16D\LL	.	.	16D\LL	.	16D\LL	.	16f#\LL	.	.	.	.	.	.	.
16E\JJ	.	.	16E\JJ	.	16E\JJ	.	16g\JJ	.	.	.	.	.	.	.
8F#\L	.	.	8F#\L	.	8F#\L	.	8a\L	.	4f#/	.	4f#/	.	4f#/	.
8E\J	.	.	8E\J	.	8E\J	.	8g\J	.	.	.	.	.	.	.
=84	=84	=84	=84	=84	=84	=84	=84	=84	=84	=84	=84	=84	=84	=84
4D\	.	2.r	4D\	.	4D\	.	4f#\	.	8a\L	.	8a\L	.	8a\L	.
.	.	.	.	.	.	.	.	.	16b\L	.	16b\L	.	16b\L	.
.	.	.	.	.	.	.	.	.	16cc#\JJ	.	16cc#\JJ	.	16cc#\JJ	.
8r	.	.	8r	.	8r	.	8r	.	16dd\LL	.	16dd\LL	.	16dd\LL	.
.	.	.	.	.	.	.	.	.	16ee\	.	16ee\	.	16ee\	.
16D\LL	.	.	16D\LL	.	16D\LL	.	16f#\LL	.	16ff#\	.	16ff#\	.	16ff#\	.
16E\JJ	.	.	16E\JJ	.	16E\JJ	.	16g\JJ	.	16gg\JJ	.	16gg\JJ	.	16gg\JJ	.
8F#\L	.	.	8F#\L	.	8F#\L	.	8a\L	.	8aa\L	.	8aa\L	.	8aa\L	.
8G\J	.	.	8G\J	.	8G\J	.	8b\J	.	8dd\J	.	8dd\J	.	8dd\J	.
=85	=85	=85	=85	=85	=85	=85	=85	=85	=85	=85	=85	=85	=85	=85
4A\	.	2.r	4A\	.	4A\	.	4e\	.	4.cc#\	.	4.cc#\	.	4.cc#\	.
8r	.	.	8r	.	8r	.	8r	.	.	.	.	.	.	.
16A\LL	.	.	16A\LL	.	16A\LL	.	16e\LL	.	8b\	.	8b\	.	8b\	.
16G\JJ	.	.	16G\JJ	.	16G\JJ	.	16f#\JJ	.	.	.	.	.	.	.
8F#\L	.	.	8F#\L	.	8F#\L	.	8g\L	.	4a/	.	4a/	.	4a/	.
8E\J	.	.	8E\J	.	8E\J	.	8g\J	.	.	.	.	.	.	.
=86	=86	=86	=86	=86	=86	=86	=86	=86	=86	=86	=86	=86	=86	=86
4D\	.	2.r	4D\	.	4D\	.	4f#\	.	4dd\	.	4dd\	.	4dd\	.
8r	.	.	8r	.	8r	.	8r	.	4a/	.	4a/	.	4a/	.
16D\LL	.	.	16D\LL	.	16D\LL	.	16f#\LL	.	.	.	.	.	.	.
16E\JJ	.	.	16E\JJ	.	16E\JJ	.	16g\JJ	.	.	.	.	.	.	.
8F#\L	.	.	8F#\L	.	8F#\L	.	8a\L	.	4f#/	.	4f#/	.	4f#/	.
8D\J	.	.	8D\J	.	8D\J	.	8f#\J	.	.	.	.	.	.	.
=87	=87	=87	=87	=87	=87	=87	=87	=87	=87	=87	=87	=87	=87	=87
4C#/	.	2.r	4C#/	.	4C#/	.	4e\	.	4a/	.	4a/	.	8a/L	.
.	.	.	.	.	.	.	.	.	.	.	.	.	8b/J	.
4r	.	.	4r	.	4r	.	4r	.	4r	.	4r	.	16cc#\LL	.
.	.	.	.	.	.	.	.	.	.	.	.	.	16dd\	.
.	.	.	.	.	.	.	.	.	.	.	.	.	16ee\	.
.	.	.	.	.	.	.	.	.	.	.	.	.	16ff#\JJ	.
4r	.	.	4r	.	4r	.	4r	.	4r	.	4r	.	8aa\L	.
.	.	.	.	.	.	.	.	.	.	.	.	.	8dd\J	.
=88	=88	=88	=88	=88	=88	=88	=88	=88	=88	=88	=88	=88	=88	=88
4AA/	.	2.r	2.r	.	4AA/	.	2.r	.	2.r	.	2.r	.	16cc#\LL	.
.	.	.	.	.	.	.	.	.	.	.	.	.	16a\	.
.	.	.	.	.	.	.	.	.	.	.	.	.	16cc#\	.
.	.	.	.	.	.	.	.	.	.	.	.	.	16ee\JJ	.
4r	.	.	.	.	4r	.	.	.	.	.	.	.	16aa\LL	.
.	.	.	.	.	.	.	.	.	.	.	.	.	16a\	.
.	.	.	.	.	.	.	.	.	.	.	.	.	16cc#\	.
.	.	.	.	.	.	.	.	.	.	.	.	.	16ee\JJ	.
4r	.	.	.	.	4r	.	.	.	.	.	.	.	16aa\LL	.
.	.	.	.	.	.	.	.	.	.	.	.	.	16gg\	.
.	.	.	.	.	.	.	.	.	.	.	.	.	16ff#\	.
.	.	.	.	.	.	.	.	.	.	.	.	.	16ee\JJ	.
=89	=89	=89	=89	=89	=89	=89	=89	=89	=89	=89	=89	=89	=89	=89
4D\	.	2.r	2.r	.	4D\	.	2.r	.	2.r	.	2.r	.	8ff#\L	.
.	.	.	.	.	.	.	.	.	.	.	.	.	16dd\L	.
.	.	.	.	.	.	.	.	.	.	.	.	.	16ee\JJ	.
4r	.	.	.	.	4r	.	.	.	.	.	.	.	8ff#\L	.
.	.	.	.	.	.	.	.	.	.	.	.	.	16ff#\L	.
.	.	.	.	.	.	.	.	.	.	.	.	.	16gg\JJ	.
4r	.	.	.	.	4r	.	.	.	.	.	.	.	8aa\L	.
.	.	.	.	.	.	.	.	.	.	.	.	.	16bb\L	.
.	.	.	.	.	.	.	.	.	.	.	.	.	16ccc#\JJ	.
=90	=90	=90	=90	=90	=90	=90	=90	=90	=90	=90	=90	=90	=90	=90
4D\	.	2.r	2.r	.	4D\	.	2.r	.	2.r	.	2.r	.	8ddd\L	.
.	.	.	.	.	.	.	.	.	.	.	.	.	8dd\J	.
4A\	.	.	.	.	4A\	.	.	.	.	.	.	.	4.ee\	.
4AA/	.	.	.	.	4AA/	.	.	.	.	.	.	.	.	.
.	.	.	.	.	.	.	.	.	.	.	.	.	8dd\	.
=91	=91	=91	=91	=91	=91	=91	=91	=91	=91	=91	=91	=91	=91	=91
4D\	f	2.r	4D\	f	4D\	f	4a\	f	4dd\	f	4dd\	f	4dd\	f
8r	.	.	8r	.	8r	.	8r	.	4a/	.	4a/	.	4a/	.
16D\LL	.	.	16D\LL	.	16D\LL	.	16f#\LL	.	.	.	.	.	.	.
16E\JJ	.	.	16E\JJ	.	16E\JJ	.	16g\JJ	.	.	.	.	.	.	.
8F#\L	.	.	8F#\L	.	8F#\L	.	8a\L	.	4f#/	.	4f#/	.	4f#/	.
8D\J	.	.	8D\J	.	8D\J	.	8f#\J	.	.	.	.	.	.	.
=92	=92	=92	=92	=92	=92	=92	=92	=92	=92	=92	=92	=92	=92	=92
4BB/	.	2.r	4BB/	.	4BB/	.	4d\	.	8g/L	.	8g/L	.	8g/L	.
.	.	.	.	.	.	.	.	.	16a/L	.	16a/L	.	16a/L	.
.	.	.	.	.	.	.	.	.	16b/JJ	.	16b/JJ	.	16b/JJ	.
8r	.	.	8r	.	8r	.	8r	.	16cc#\LL	.	16cc#\LL	.	16cc#\LL	.
.	.	.	.	.	.	.	.	.	16dd\	.	16dd\	.	16dd\	.
16G\LL	.	.	16G\LL	.	16G\LL	.	8b\	.	16ee\	.	16ee\	.	16ee\	.
16A\JJ	.	.	16A\JJ	.	16A\JJ	.	.	.	16ff#\JJ	.	16ff#\JJ	.	16ff#\JJ	.
8B\L	.	.	8B\L	.	8B\L	.	8dd\L	.	8gg\	.	8gg\	.	8gg\	.
8A\J	.	.	8A\J	.	8A\J	.	8cc#\J	.	8r	.	8r	.	8r	.
=93	=93	=93	=93	=93	=93	=93	=93	=93	=93	=93	=93	=93	=93	=93
4G#\	.	2.r	4G#\	.	4G#\	.	4b\	.	4ee\	.	4ee\	.	4ee\	.
8r	.	.	8r	.	8r	.	8r	.	4b\	.	4b\	.	4b\	.
16E\LL	.	.	16E\LL	.	16E\LL	.	16g#\LL	.	.	.	.	.	.	.
16F#\JJ	.	.	16F#\JJ	.	16F#\JJ	.	16a\JJ	.	.	.	.	.	.	.
8G#\L	.	.	8G#\L	.	8G#\L	.	8b\L	.	4g#/	.	4g#/	.	4g#/	.
8E\J	.	.	8E\J	.	8E\J	.	8g#\J	.	.	.	.	.	.	.
=94	=94	=94	=94	=94	=94	=94	=94	=94	=94	=94	=94	=94	=94	=94
4C#/	.	2.r	4C#/	.	4C#/	.	4e\	.	8a\L	.	8a\L	.	8a\L	.
.	.	.	.	.	.	.	.	.	16b\L	.	16b\L	.	16b\L	.
.	.	.	.	.	.	.	.	.	16cc#\JJ	.	16cc#\JJ	.	16cc#\JJ	.
8r	.	.	8r	.	8r	.	8r	.	16dd\LL	.	16dd\LL	.	16dd\LL	.
.	.	.	.	.	.	.	.	.	16ee\	.	16ee\	.	16ee\	.
16AA/LL	.	.	16AA/LL	.	16AA/LL	.	16c#\LL	.	16ff#\	.	16ff#\	.	16ff#\	.
16BB/JJ	.	.	16BB/JJ	.	16BB/JJ	.	16d\JJ	.	16gg\JJ	.	16gg\JJ	.	16gg\JJ	.
8C#/L	.	.	8C#/L	.	8C#/L	.	8e\L	.	8aa\	.	8aa\	.	8aa\	.
8AA/J	.	.	8AA/J	.	8AA/J	.	8c#\J	.	8r	.	8r	.	8r	.
=95	=95	=95	=95	=95	=95	=95	=95	=95	=95	=95	=95	=95	=95	=95
4D\	.	2.r	4D\	.	4D\	.	4A/	.	4dd\	.	4dd\	.	4dd\	.
8r	.	.	8r	.	8r	.	8r	.	4a/	.	4a/	.	4a/	.
16D\LL	.	.	16D\LL	.	16D\LL	.	16f#\LL	.	.	.	.	.	.	.
16E\JJ	.	.	16E\JJ	.	16E\JJ	.	16g\JJ	.	.	.	.	.	.	.
8F#\L	.	.	8F#\L	.	8F#\L	.	8a\L	.	4f#/	.	4f#/	.	4f#/	.
8D\J	.	.	8D\J	.	8D\J	.	8f#\J	.	.	.	.	.	.	.
=96	=96	=96	=96	=96	=96	=96	=96	=96	=96	=96	=96	=96	=96	=96
4BB/	.	2.r	4BB/	.	4BB/	.	4g\	.	4dd\	.	4dd\	.	4dd\	.
8r	.	.	8r	.	8r	.	8r	.	4b\	.	4b\	.	4b\	.
16G\LL	.	.	16G\LL	.	16G\LL	.	16B/LL	.	.	.	.	.	.	.
16A\JJ	.	.	16A\JJ	.	16A\JJ	.	16c#/JJ	.	.	.	.	.	.	.
8B\L	.	.	8B\L	.	8B\L	.	8d/L	.	4g/	.	4g/	.	4g/	.
8G\J	.	.	8G\J	.	8G\J	.	8B/J	.	.	.	.	.	.	.
=97	=97	=97	=97	=97	=97	=97	=97	=97	=97	=97	=97	=97	=97	=97
4F#\	.	2.r	4F#\	.	4F#\	.	4A/	.	4dd\	.	4dd\	.	4dd\	.
8r	.	.	8r	.	8r	.	8r	.	4a/	.	4a/	.	4a/	.
16D\LL	.	.	16D\LL	.	16D\LL	.	16f#\LL	.	.	.	.	.	.	.
16E\JJ	.	.	16E\JJ	.	16E\JJ	.	16g\JJ	.	.	.	.	.	.	.
8F#\L	.	.	8F#\L	.	8F#\L	.	8a\L	.	4f#/	.	4f#/	.	4f#/	.
8D\J	.	.	8D\J	.	8D\J	.	8f#\J	.	.	.	.	.	.	.
=98	=98	=98	=98	=98	=98	=98	=98	=98	=98	=98	=98	=98	=98	=98
4G\	.	2.r	4G\	.	4G\	.	4g\	.	4dd\	.	4dd\	.	4dd\	.
8r	.	.	8r	.	8r	.	8r	.	4b\	.	4b\	.	4b\	.
16G\LL	.	.	16G\LL	.	16G\LL	.	16B/LL	.	.	.	.	.	.	.
16A\JJ	.	.	16A\JJ	.	16A\JJ	.	16c#/JJ	.	.	.	.	.	.	.
8B\L	.	.	8B\L	.	8B\L	.	8d\L	.	4g/	.	4g/	.	4g/	.
8G\J	.	.	8G\J	.	8G\J	.	8B\J	.	.	.	.	.	.	.
=99	=99	=99	=99	=99	=99	=99	=99	=99	=99	=99	=99	=99	=99	=99
4D\	.	2.r	4D\	.	4D\	.	4A/	.	8f#/L	.	8f#/L	.	8f#/L	.
.	.	.	.	.	.	.	.	.	16g/L	.	16g/L	.	16g/L	.
.	.	.	.	.	.	.	.	.	16a/JJ	.	16a/JJ	.	16a/JJ	.
8r	.	.	8r	.	8r	.	8r	.	16b\LL	.	16b\LL	.	16b\LL	.
.	.	.	.	.	.	.	.	.	16cc#\	.	16cc#\	.	16cc#\	.
16F#\LL	.	.	16F#\LL	.	16F#\LL	.	16a\LL	.	16dd\	.	16dd\	.	16dd\	.
16E\JJ	.	.	16E\JJ	.	16E\JJ	.	16g\JJ	.	16ee\JJ	.	16ee\JJ	.	16ee\JJ	.
8D/L	.	.	8D/L	.	8D/L	.	8f#\L	.	8ff#\	.	8ff#\	.	8ff#\	.
8C#/J	.	.	8C#/J	.	8C#/J	.	8e\J	.	8r	.	8r	.	8r	.
=100	=100	=100	=100	=100	=100	=100	=100	=100	=100	=100	=100	=100	=100	=100
4D\	.	2.r	4D\	.	4D\	.	4f#\	.	4dd\	.	4dd\	.	4dd\	.
4GG/	.	.	4GG/	.	4GG/	.	4g\	.	4ee\	.	4ee\	.	4ee\	.
4AA/	.	.	4AA/	.	4AA/	.	4e\	.	4cc#\	.	4cc#\	.	4cc#\	.
=101	=101	=101	=101	=101	=101	=101	=101	=101	=101	=101	=101	=101	=101	=101
2.DD;/	.	2.r	2.D;\	.	2.DD;/	.	2.f#;\	.	2.dd;\	.	2.dd;\	.	2.dd;\	.
==	==	==	==	==	==	==	==	==	==	==	==	==	==	==
*-	*-	*-	*-	*-	*-	*-	*-	*-	*-	*-	*-	*-	*-	*-
!!!ENC: Don Anthony
!!!END: 2005/06/10/
!!!ONB: Converted to Humdrum by Craig Sapp 2005/06/26/
